svg/u1f1fe.svg

<svg viewBox="0 0 128 128" xmlns="http://www.w3.org/2000/svg">
  <path d="m114.89 16.69c-0.41-0.77-1.21-1.25-2.09-1.25h-22.3c-0.77 0-1.5 0.38-1.94 1.02l-24.56 35.28-24.57-35.29c-0.44-0.64-1.16-1.02-1.94-1.02h-22.3c-0.87 0-1.67 0.48-2.08 1.25s-0.36 1.71 0.12 2.43l36.58 54.56v44.58c0 1.29 1.05 2.33 2.34 2.33h23.71c1.29 0 2.34-1.04 2.34-2.33v-44.57l36.57-54.56c0.48-0.72 0.53-1.66 0.12-2.43z" fill="#40C0E7"/>
</svg>

<svg viewBox="0 0 128 128" xmlns="http://www.w3.org/2000/svg">
  <defs/>
  <path d="M114.89,16.69 C114.48,15.92 113.68,15.44 112.8,15.44 L90.5,15.44 C89.73,15.44 89,15.82 88.56,16.46 L64,51.74 L39.43,16.45 C38.99,15.81 38.27,15.43 37.49,15.43 L15.19,15.43 C14.32,15.43 13.52,15.91 13.11,16.68 C12.7,17.45 12.75,18.39 13.23,19.11 L49.81,73.67 L49.81,118.25 C49.81,119.54 50.86,120.58 52.15,120.58 L75.86,120.58 C77.15,120.58 78.2,119.54 78.2,118.25 L78.2,73.68 L114.77,19.12 C115.25,18.4 115.3,17.46 114.89,16.69 Z" fill="#40C0E7"/>
</svg>
